X:255
T:Mother's Delight
M:C|
L:1/8
Q:120
R:Reel (Key of Ddor)
K:Ddor
DE |: "Dm"F2FD "C"~G2GE | "Dm"FEFA GECE | Ddd^c defe | "Am7"~d2 cd ABcA |
"Dm"Addc AGAB | "Am7"cAGF ECCE | "Dm"Dddc AGAB | "C"cAGE "Dm"EDDE :|:
"Dm"FAdA FDDF | "C"EGcG ECCE | "Dm"FAdA FDDF | "C"EDCE "Dm"D2DE |
FAdA "G"FDDF | "Am7"EGcG ECCE | "Dm"FAGE FEDC | "C"A,CDE "Dm"D2 :|]
